dist/images/svg/sprite/money-bag-broken-color.svg

<svg width="23" height="23" viewBox="0 0 23 23" fill="none" xmlns="http://www.w3.org/2000/svg">
<path d="M3.40832 19.3371C4.48173 20.4115 6.21057 20.4115 9.66732 20.4115H13.334C16.7907 20.4115 18.5196 20.4115 19.593 19.3371C20.6673 18.2637 20.6673 16.5349 20.6673 13.0781C20.6673 12.0056 20.6673 11.1 20.6352 10.3281M19.593 6.81912C18.5196 5.74479 16.7907 5.74479 13.334 5.74479H9.66732C6.21057 5.74479 4.48173 5.74479 3.40832 6.81912C2.33398 7.89254 2.33398 9.62137 2.33398 13.0781C2.33398 14.1506 2.33398 15.0563 2.36607 15.8281M11.5007 2.07812C13.2295 2.07812 14.093 2.07812 14.6302 2.61529C15.1673 3.15246 15.1673 4.01596 15.1673 5.74479M8.37115 2.61529C7.83398 3.15246 7.83398 4.01596 7.83398 5.74479" stroke="#0085C0" stroke-width="1.07827" stroke-linecap="round"/>
<path d="M11.5004 16.1338C12.5134 16.1338 13.3338 15.4499 13.3338 14.6066C13.3338 13.7633 12.5134 13.0785 11.5004 13.0785C10.4875 13.0785 9.66711 12.3947 9.66711 11.5504C9.66711 10.7071 10.4875 10.0233 11.5004 10.0233M11.5004 16.1338C10.4875 16.1338 9.66711 15.4499 9.66711 14.6066M11.5004 16.1338V16.7452M11.5004 10.0233V9.41187M11.5004 10.0233C12.5134 10.0233 13.3338 10.7071 13.3338 11.5504" stroke="#0085C0" stroke-width="1.07827" stroke-linecap="round"/>
</svg>

<svg width="23" height="23" fill="none" xmlns="http://www.w3.org/2000/svg"><path d="M3.408 19.337c1.074 1.075 2.803 1.075 6.26 1.075h3.666c3.457 0 5.186 0 6.259-1.075 1.074-1.073 1.074-2.802 1.074-6.259 0-1.072 0-1.978-.032-2.75M19.593 6.82c-1.073-1.074-2.802-1.074-6.259-1.074H9.667c-3.456 0-5.185 0-6.259 1.074-1.074 1.074-1.074 2.802-1.074 6.26 0 1.072 0 1.977.032 2.75m9.135-13.75c1.729 0 2.592 0 3.13.536.536.537.536 1.401.536 3.13m-6.796-3.13c-.537.537-.537 1.401-.537 3.13" stroke="#0085C0" stroke-width="1.078" stroke-linecap="round"/><path d="M11.5 16.134c1.013 0 1.834-.684 1.834-1.527 0-.844-.82-1.528-1.834-1.528-1.012 0-1.833-.684-1.833-1.529 0-.843.82-1.527 1.833-1.527m0 6.11c-1.012 0-1.833-.683-1.833-1.526m1.833 1.527v.611m0-6.722v-.611m0 .611c1.013 0 1.834.684 1.834 1.527" stroke="#0085C0" stroke-width="1.078" stroke-linecap="round"/></svg>
